!! 00000] TT[WS
!!!OTL: Jin xiu hebao
!!!ARE: Asia, China,ÿShanxi Lishan
!! Ethnic Group: Han
!! WI, 115 (2)
!!!SCT: J0135
!!!YEM: Copyright 1995, estate of Helmut Schaffrath.
**kern
*ICvox
*Ivox
*M2/4
*k[b-e-a-]
*E-:
{8b-
8cc
8ee-
16ee-
16ee-
=1
16ee-
16cc
4b-
8cc
=2
8ee-
16ee-
16ee-
16cc
16ee-
16cc
16b-
=3
16cc
16b-
4g
8f
=4
16g
16f
4.g}
=5
{8b-
8cc
8ee-
16ee-
16ee-
=6
16ee-
16cc
4b-
8cc
=7
8ee-
16ee-
16ee-
16cc
16ee-
16cc
16b-
=8
16cc
16b-
4g
8f
=9
16g
16f
4.g}
=10
{16f
16g
8c
4e-
=11
8g
8ee-
8cc
8b-
=12
16g
16b-
8g
8f
8e-
=13
8c
8B-
4c}
=14
{8e-
4e-
8f
=15
8g
8ee-
8cc
16b-
16b-
=16
16cc
16b-
4e-
8f
=17
8g
8g
8.b-
16g
=18
16f
16g
8f
16g
16f
8e-
=19
16f
16e-
4c
8B-
=20
2c}
==
!!!AGN: Xiaodiao. Qingge
!!!ONB: ESAC (Essen Associative Code) Database: CHINA
!!!AMT: simple duple
!!!AIN: vox
!!!EED: Helmut Schaffrath
!!!EEV: 1.0
*-
